src/payment-visa.svg

<svg xmlns="http://www.w3.org/2000/svg" class="dibsvg-svg dibsvg-visa" viewBox="0 0 500 312">
    <rect width="500" height="312" fill="#F8F8F8" class="dibsvg-color-holder"/>
    <g fill="#0066B2" class="dibsvg-color-letters" transform="translate(53 93)">
        <path d="M5.20833333,6.25 C5.20833333,3.125 8.33333333,0 11.4583333,0 C14.5833333,0 17.7083333,3.125 17.7083333,6.25 C17.7083333,9.375 14.5833333,12.5 11.4583333,12.5 C8.33333333,12.5 5.20833333,9.375 5.20833333,6.25 L5.20833333,6.25 L5.20833333,6.25 Z M11.4583333,10.4166667 C14.5833333,10.4166667 16.6666667,8.33333333 16.6666667,5.20833333 C16.6666667,2.08333333 14.5833333,0 11.4583333,0 C8.33333333,0 6.25,2.08333333 6.25,5.20833333 C6.25,8.33333333 8.33333333,10.4166667 11.4583333,10.4166667 L11.4583333,10.4166667 L11.4583333,10.4166667 Z M10.4166667,8.33333333 L9.375,8.33333333 L9.375,3.125 L11.4583333,3.125 L12.5,3.125 L13.5416667,4.16666667 C13.5416667,5.20833333 13.5416667,5.20833333 12.5,5.20833333 L13.5416667,7.29166667 L12.5,7.29166667 L11.4583333,6.25 L10.4166667,6.25 L10.4166667,8.33333333 L10.4166667,8.33333333 L10.4166667,8.33333333 Z M10.4166667,5.20833333 L10.4166667,5.20833333 L11.4583333,5.20833333 C11.4583333,5.20833333 11.4583333,5.20833333 11.4583333,4.16666667 C11.4583333,4.16666667 11.4583333,4.16666667 11.4583333,3.125 L10.4166667,3.125 L10.4166667,3.125 L10.4166667,5.20833333 L10.4166667,5.20833333 L10.4166667,5.20833333 Z" transform="translate(384.578 107.562)"/>
        <path d="M357.458333 120.625L386.625 120.625 361.625 1.875 336.625 1.875C325.166667 1.875 322.041667 10.2083333 322.041667 10.2083333L275.166667 119.583333 308.5 119.583333 314.75 101.875 354.333333 101.875 357.458333 120.625 357.458333 120.625zM323.083333 78.9583333L339.75 35.2083333 349.125 78.9583333 323.083333 78.9583333 323.083333 78.9583333zM277.25 31.0416667L281.416667 6.04166667C281.416667 6.04166667 267.875.833333333 253.291667.833333333 237.666667.833333333 200.166667 7.08333333 200.166667 39.375 200.166667 69.5833333 243.916667 70.625 243.916667 86.25 243.916667 101.875 204.333333 99.7916667 191.833333 89.375L187.666667 115.416667C187.666667 115.416667 201.208333 121.666667 223.083333 121.666667 244.958333 121.666667 277.25 111.25 277.25 81.0416667 277.25 50.8333333 233.5 47.7083333 233.5 34.1666667 232.458333 21.6666667 263.708333 23.75 277.25 31.0416667"/>
        <polyline points="167.875 120.625 136.625 120.625 155.375 1.875 187.667 1.875 167.875 120.625"/>
        <path d="M65.7916667,13.3333333 L76.2083333,66.4583333 L76.2083333,66.4583333 L76.2083333,66.4583333 L65.7916667,13.3333333 C65.7916667,13.3333333 64.75,2.91666667 51.2083333,2.91666667 L26.2083333,2.91666667 L61.625,27.9166667 L76.2083333,66.4583333 L76.2083333,66.4583333 L79.3333333,84.1666667 L109.541667,2.91666667 L143.916667,2.91666667 L93.9166667,120.625 L60.5833333,120.625 L33.5,18.5416667 C15.7916667,8.125 0.166666667,5 0.166666667,5 L1.20833333,2.91666667 L26.2083333,2.91666667"/>
    </g>
    <path fill="#F9A533" d="M129.208333,159.458333 L118.791667,106.333333 C118.791667,106.333333 117.75,95.9166667 104.208333,95.9166667 L54.2083333,95.9166667 L53.1666667,96.9583333 C53.1666667,96.9583333 77.125,102.166667 100.041667,119.875 C121.916667,137.583333 129.208333,159.458333 129.208333,159.458333" class="dibsvg-color-letters-top"/>
</svg>

<svg xmlns="http://www.w3.org/2000/svg" class="dibsvg-svg dibsvg-visa" viewBox="0 0 500 312">
    <rect width="500" height="312" fill="#F8F8F8" class="dibsvg-color-holder"/>
    <g fill="#0066B2" class="dibsvg-color-letters" transform="translate(53 93)">
        <path d="M389.786 113.812c0-3.125 3.125-6.25 6.25-6.25s6.25 3.125 6.25 6.25-3.125 6.25-6.25 6.25-6.25-3.125-6.25-6.25zm6.25 4.167c3.125 0 5.209-2.084 5.209-5.209 0-3.125-2.084-5.208-5.209-5.208-3.125 0-5.208 2.083-5.208 5.208s2.083 5.209 5.208 5.209zm-1.041-2.084h-1.042v-5.208h3.125l1.042 1.042c0 1.041 0 1.041-1.042 1.041l1.042 2.084h-1.042l-1.042-1.042h-1.041v2.083zm0-3.125h1.041v-2.083h-1.041v2.083z"/>
        <path d="M357.458 120.625h29.167l-25-118.75h-25c-11.458 0-14.583 8.333-14.583 8.333l-46.875 109.375H308.5l6.25-17.708h39.583l3.125 18.75zm-34.375-41.667l16.667-43.75 9.375 43.75h-26.042zM277.25 31.042l4.167-25S267.875.833 253.292.833c-15.625 0-53.125 6.25-53.125 38.542 0 30.208 43.75 31.25 43.75 46.875s-39.584 13.542-52.084 3.125l-4.166 26.042s13.541 6.25 35.416 6.25c21.875 0 54.167-10.417 54.167-40.625 0-30.209-43.75-33.334-43.75-46.875-1.042-12.5 30.208-10.417 43.75-3.125"/>
        <polyline points="167.875 120.625 136.625 120.625 155.375 1.875 187.667 1.875 167.875 120.625"/>
        <path d="M65.792 13.333l10.416 53.125-10.416-53.125S64.75 2.917 51.208 2.917h-25l35.417 25 14.583 38.541 3.125 17.709 30.209-81.25h34.375l-50 117.708H60.583L33.5 18.542C15.792 8.125.167 5 .167 5l1.041-2.083h25"/>
    </g>
    <path fill="#F9A533" d="M129.208 159.458l-10.416-53.125s-1.042-10.416-14.584-10.416h-50l-1.041 1.041s23.958 5.209 46.875 22.917c21.875 17.708 29.166 39.583 29.166 39.583" class="dibsvg-color-letters-top"/>
</svg>
